svgs/light/page.svg

<svg xmlns="http://www.w3.org/2000/svg" viewBox="0 0 384 512"><!--! Font Awesome Pro 6.3.0 by @fontawesome - https://fontawesome.com License - https://fontawesome.com/license (Commercial License) Copyright 2023 Fonticons, Inc. --><path d="M320 512H64C28.65 512 0 483.3 0 448V64C0 28.65 28.65 0 64 0H245.5C262.5 0 278.7 6.743 290.7 18.75L365.3 93.26C377.3 105.3 384 121.5 384 138.5V448C384 483.3 355.3 512 320 512zM64 480H320C337.7 480 352 465.7 352 448V138.5C352 130 348.6 121.9 342.6 115.9L268.1 41.37C262.1 35.37 253.1 32 245.5 32H64C46.33 32 32 46.33 32 64V448C32 465.7 46.33 480 64 480V480z"/></svg>

<svg xmlns="http://www.w3.org/2000/svg" viewBox="0 0 384 512"><!--! Font Awesome Pro 6.4.0 by @fontawesome - https://fontawesome.com License - https://fontawesome.com/license (Commercial License) Copyright 2023 Fonticons, Inc. --><path d="M64 480H320c17.7 0 32-14.3 32-32V138.5c0-8.5-3.4-16.6-9.4-22.6L268.1 41.4c-6-6-14.1-9.4-22.6-9.4H64C46.3 32 32 46.3 32 64V448c0 17.7 14.3 32 32 32zm256 32H64c-35.3 0-64-28.7-64-64V64C0 28.7 28.7 0 64 0H245.5c17 0 33.3 6.7 45.3 18.7l74.5 74.5c12 12 18.7 28.3 18.7 45.3V448c0 35.3-28.7 64-64 64z"/></svg>
